Newaita-dark/apps/24/acroread.svg

<svg height="24" viewBox="0 0 24 24" width="24" xmlns="http://www.w3.org/2000/svg" xmlns:xlink="http://www.w3.org/1999/xlink"><linearGradient id="a" gradientUnits="userSpaceOnUse" x1="11.90739" x2="11.90739" y1="21.02545225" y2="22.01773525002"><stop offset="0" stop-opacity=".27451"/><stop offset="1" stop-opacity="0"/></linearGradient><linearGradient id="b"><stop offset="0" stop-opacity=".313726"/><stop offset=".222222" stop-opacity=".27451"/><stop offset="1" stop-opacity="0"/></linearGradient><radialGradient id="c" cx="450.908936" cy="189.579361" gradientTransform="matrix(.00000013 -.0585994 -.105479 -.00000008 37.609564 47.696499)" gradientUnits="userSpaceOnUse" r="21.166656" xlink:href="#b"/><radialGradient id="d" cx="450.908936" cy="189.579361" gradientTransform="matrix(-.00000013 .0585994 .105479 .00000008 -13.794787 -5.64561)" gradientUnits="userSpaceOnUse" r="21.166656" xlink:href="#b"/><radialGradient id="e" cx="450.908936" cy="189.579361" gradientTransform="matrix(-.00000013 -.0585994 .105479 -.00000008 -13.794787 47.696499)" gradientUnits="userSpaceOnUse" r="21.166656" xlink:href="#b"/><radialGradient id="f" cx="450.908936" cy="189.579361" gradientTransform="matrix(.00000013 .0585994 -.105479 .00000008 37.609563 -5.64561)" gradientUnits="userSpaceOnUse" r="21.166656" xlink:href="#b"/><linearGradient id="g" gradientTransform="matrix(.0565122 0 0 .163059 -4.39051 25.231011)" gradientUnits="userSpaceOnUse" x1="306.916656" x2="305.954559" y1="-25.791676" y2="-141.414581"><stop offset="0" stop-color="#f44336"/><stop offset="1" stop-color="#ef5350"/></linearGradient><linearGradient id="h"><stop offset="0" stop-color="#e0e0e0"/><stop offset="1" stop-color="#eee"/></linearGradient><linearGradient id="i" gradientUnits="userSpaceOnUse" x1="275.166308" x2="275.166308" xlink:href="#h" y1="233.49969318561" y2="-168.66647475188"/><linearGradient id="j"><stop offset="0" stop-color="#424242"/><stop offset="1" stop-color="#616161"/></linearGradient><linearGradient id="k" gradientTransform="matrix(4.556143 0 0 13.146184 -353.972656 2034.180176)" gradientUnits="userSpaceOnUse" x1="165.484848" x2="165.484848" xlink:href="#j" y1="-25.791672" y2="-141.414581"/><linearGradient id="l" gradientUnits="userSpaceOnUse" x1="359.833048" x2="349.249728" xlink:href="#h" y1="233.4994349526" y2="-168.66671710991"/><linearGradient id="m" gradientUnits="userSpaceOnUse" x1="4.96141325005" x2="4.96141325005" xlink:href="#j" y1="7.87771701563" y2="6.88543434376"/><linearGradient id="n" gradientUnits="userSpaceOnUse" x1="4.96141325005" x2="4.96141325005" xlink:href="#j" y1="16.06404601563" y2="15.07176334376"/><path d="m5.953125 21.027344h11.90625v.992187h-11.90625zm0 0" fill="url(#a)"/><path d="m17.859375 21.027344h1.984375v-.996094h-1.984375zm0 0" fill="url(#c)"/><path d="m5.953125 21.027344h-1.984375v.992187h1.984375zm0 0" fill="url(#d)"/><path d="m5.953125 21.027344h-1.984375v-.996094h1.984375zm0 0" fill="url(#e)"/><path d="m17.859375 21.027344h1.984375v.992187h-1.984375zm0 0" fill="url(#f)"/><path d="m4.960938 2.171875h13.890624c.550782 0 .992188.445313.992188.992187v16.867188c0 .550781-.441406.996094-.992188.996094h-13.890624c-.546876 0-.992188-.445313-.992188-.996094v-16.867188c0-.546874.445312-.992187.992188-.992187zm0 0" fill="url(#g)"/><path d="m19.105469 9.617188v.003906c-.070313 0-.144531 0-.210938.015625-1.25.140625-2.546875 2.605469-2.636719 5.046875-1.636718 1.039062-3.390624 1.992187-5.132812 2.738281-.863281-.292969-2.855469-1.023437-4.140625-.734375-.808594.175781-1.398437 1.117188-1.265625 1.761719-.007812-.027344-.015625-.050781-.019531-.078125.003906.058594.023437.121094.050781.183594.003906.015624.011719.027343.015625.039062 0-.003906 0-.007812-.003906-.011719.207031.40625.851562.851563 1.023437.851563.949219.179687 2.898438-.40625 4.089844-.847656 1.574219.710937 3.414062 1.609374 4.992188 2.441406h2.757812c-.386719-1.679688-.675781-3.84375-.859375-5.644532.832031-.597656 1.546875-1.246093 2.078125-1.890624v-1.578126c-.5.574219-1.277344 1.214844-2.207031 1.863282.03125-2.699219.542969-4.554688 2.1875-3.875.007812.003906.015625.007812.019531.011718v-.105468c-.011719-.003906-.027344-.011719-.039062-.015625-.253907-.175781-.484376-.164063-.699219-.175781zm-2.714844 6.453124c.226563 1.648438.269531 2.089844.546875 4.285157-1.320312-.765625-2.859375-1.660157-4.246094-2.300781 1.347656-.554688 2.480469-1.203126 3.699219-1.984376zm-9.515625 1.453126c.300781 0 .625.035156.925781.082031.066407.007812.152344.015625.226563.023437.535156.074219.894531.144532 1.144531.210938l.003906.011718c.164063.066407.339844.140626.519531.21875-.96875.59375-3.558593.957032-3.945312.425782-.105469-.757813.445312-.96875 1.125-.972656zm11.726562 3.261718c.023438.074219.03125.15625.03125.242188h.21875c.039063 0 .074219-.003906.109376-.007813-.113282-.078125-.234376-.160156-.359376-.234375zm0 0" fill="#fff" fill-opacity=".392157"/><path d="m148.152519-147.506445v359.798974h243.393424c5.916101 0 10.582322-4.666221 10.582322-10.582323v-338.634329c0-5.832776-4.666221-10.582322-10.582322-10.582322zm0 0" style="fill:none;stroke-width:8;stroke-linecap:round;stroke-linejoin:round;stroke-dasharray:16.000002 16.000002;stroke-dashoffset:7.200001;stroke:url(#i)" transform="matrix(.0468795 0 0 .0468795 0 10.079087)"/><path d="m399.961827 175.101398c-44.405211 0-79.992366 35.587155-79.992366 79.992365v1359.870211c0 44.40521 35.587155 80.307296 79.992366 80.307296h119.988548v-1520.169872zm0 0" fill="url(#k)" stroke="#212121" stroke-linecap="round" stroke-width="11.338583" transform="scale(.0124035)"/><path d="m4.960938 20.96875c-.550782 0-.992188-.441406-.992188-.992188v-.125c0 .550782.441406.992188.992188.992188h13.890624c.550782 0 .992188-.441406.992188-.992188v.125c0 .550782-.441406.992188-.992188.992188zm0 0" fill-opacity=".196078"/><path d="m328.052006-168.671091v253.975747c15.915147-42.329291 26.49747-42.329291 42.329291 0v-253.975747zm0 0" fill="url(#l)" stroke="#212121" stroke-linecap="round" stroke-linejoin="round" stroke-width="3" transform="matrix(.0468795 0 0 .0468795 0 10.079087)"/><path d="m4.960938 2.226562c-.550782 0-.992188.445313-.992188.992188v.125c0-.550781.441406-.992188.992188-.992188h13.890624c.550782 0 .992188.441407.992188.992188v-.125c0-.546875-.441406-.992188-.992188-.992188zm0 0" fill="#fff" fill-opacity=".392157"/><path d="m4.960938 2.101562c-.585938 0-1.0625.476563-1.0625 1.0625v16.867188c0 .589844.476562 1.066406 1.0625 1.066406h13.890624c.589844 0 1.0625-.476562 1.0625-1.066406v-16.867188c0-.585937-.472656-1.0625-1.0625-1.0625zm0 .140626h13.890624c.515626 0 .921876.410156.921876.921874v16.867188c0 .515625-.40625.925781-.921876.925781h-13.890624c-.511719 0-.921876-.410156-.921876-.925781v-16.867188c0-.511718.410157-.921874.921876-.921874zm0 0" fill="#212121"/><path d="m3.96875 6.886719h2.480469v.992187h-2.480469zm0 0" fill="url(#m)"/><path d="m3.96875 7.878906v.371094h2.480469v-.371094zm0 0" fill-opacity=".235294"/><path d="m3.96875 6.886719v.246093h2.480469v-.246093zm0 0" fill="#fff" fill-opacity=".392157"/><path d="m84.658596-20.472602h52.911613v21.164645h-52.911613zm0 0" fill="none" stroke="#212121" stroke-linecap="round" stroke-linejoin="round" stroke-width="3" transform="matrix(.0468795 0 0 .0468795 -.000001 7.846464)"/><path d="m3.96875 15.070312h2.480469v.992188h-2.480469zm0 0" fill="url(#n)"/><path d="m3.96875 16.0625v.375h2.480469v-.375zm0 0" fill-opacity=".235294"/><path d="m3.96875 15.070312v.25h2.480469v-.25zm0 0" fill="#fff" fill-opacity=".392157"/><path d="m84.658596-20.530951h52.911613v21.164646h-52.911613zm0 0" fill="none" stroke="#212121" stroke-linecap="round" stroke-linejoin="round" stroke-width="3" transform="matrix(.0468795 0 0 .0468795 -.000001 16.032793)"/></svg>

<?xml version="1.0" encoding="UTF-8"?>
<svg xmlns="http://www.w3.org/2000/svg" xmlns:xlink="http://www.w3.org/1999/xlink" width="24px" height="24px" viewBox="0 0 24 24" version="1.1">
<defs>
<linearGradient id="linear0" gradientUnits="userSpaceOnUse" x1="254" y1="233.5" x2="254" y2="254.666672" gradientTransform="matrix(0.0468795,0,0,0.0468795,-0.0000028613,10.079089)">
<stop offset="0" style="stop-color:rgb(0%,0%,0%);stop-opacity:0.27451;"/>
<stop offset="1" style="stop-color:rgb(0%,0%,0%);stop-opacity:0;"/>
</linearGradient>
<radialGradient id="radial0" gradientUnits="userSpaceOnUse" cx="450.908936" cy="189.579361" fx="450.908936" fy="189.579361" r="21.166656" gradientTransform="matrix(0.000000130628,-0.0585994,-0.105479,-0.0000000761539,37.609564,47.696499)">
<stop offset="0" style="stop-color:rgb(0%,0%,0%);stop-opacity:0.313726;"/>
<stop offset="0.222222" style="stop-color:rgb(0%,0%,0%);stop-opacity:0.27451;"/>
<stop offset="1" style="stop-color:rgb(0%,0%,0%);stop-opacity:0;"/>
</radialGradient>
<radialGradient id="radial1" gradientUnits="userSpaceOnUse" cx="450.908936" cy="189.579361" fx="450.908936" fy="189.579361" r="21.166656" gradientTransform="matrix(-0.000000130628,0.0585994,0.105479,0.0000000761539,-13.794787,-5.64561)">
<stop offset="0" style="stop-color:rgb(0%,0%,0%);stop-opacity:0.313726;"/>
<stop offset="0.222222" style="stop-color:rgb(0%,0%,0%);stop-opacity:0.27451;"/>
<stop offset="1" style="stop-color:rgb(0%,0%,0%);stop-opacity:0;"/>
</radialGradient>
<radialGradient id="radial2" gradientUnits="userSpaceOnUse" cx="450.908936" cy="189.579361" fx="450.908936" fy="189.579361" r="21.166656" gradientTransform="matrix(-0.000000130628,-0.0585994,0.105479,-0.0000000761539,-13.794787,47.696499)">
<stop offset="0" style="stop-color:rgb(0%,0%,0%);stop-opacity:0.313726;"/>
<stop offset="0.222222" style="stop-color:rgb(0%,0%,0%);stop-opacity:0.27451;"/>
<stop offset="1" style="stop-color:rgb(0%,0%,0%);stop-opacity:0;"/>
</radialGradient>
<radialGradient id="radial3" gradientUnits="userSpaceOnUse" cx="450.908936" cy="189.579361" fx="450.908936" fy="189.579361" r="21.166656" gradientTransform="matrix(0.000000130628,0.0585994,-0.105479,0.0000000761539,37.609563,-5.64561)">
<stop offset="0" style="stop-color:rgb(0%,0%,0%);stop-opacity:0.313726;"/>
<stop offset="0.222222" style="stop-color:rgb(0%,0%,0%);stop-opacity:0.27451;"/>
<stop offset="1" style="stop-color:rgb(0%,0%,0%);stop-opacity:0;"/>
</radialGradient>
<linearGradient id="linear1" gradientUnits="userSpaceOnUse" x1="306.916656" y1="-25.791676" x2="305.954559" y2="-141.414581" gradientTransform="matrix(0.0565122,0,0,0.163059,-4.39051,25.231011)">
<stop offset="0" style="stop-color:rgb(95.686275%,26.274511%,21.176471%);stop-opacity:1;"/>
<stop offset="1" style="stop-color:rgb(93.725491%,32.549021%,31.37255%);stop-opacity:1;"/>
</linearGradient>
<linearGradient id="linear2" gradientUnits="userSpaceOnUse" x1="1040" y1="1695.118164" x2="1040" y2="175.118134" gradientTransform="matrix(0.264583,0,0,0.264583,-0.0000123333,-214.999756)">
<stop offset="0" style="stop-color:rgb(87.843138%,87.843138%,87.843138%);stop-opacity:1;"/>
<stop offset="1" style="stop-color:rgb(93.333334%,93.333334%,93.333334%);stop-opacity:1;"/>
</linearGradient>
<linearGradient id="linear3" gradientUnits="userSpaceOnUse" x1="165.484848" y1="-25.791672" x2="165.484848" y2="-141.414581" gradientTransform="matrix(4.556143,0,0,13.146184,-353.972656,2034.180176)">
<stop offset="0" style="stop-color:rgb(25.882354%,25.882354%,25.882354%);stop-opacity:1;"/>
<stop offset="1" style="stop-color:rgb(38.039216%,38.039216%,38.039216%);stop-opacity:1;"/>
</linearGradient>
<linearGradient id="linear4" gradientUnits="userSpaceOnUse" x1="880" y1="1695.117188" x2="840" y2="175.117218" gradientTransform="matrix(0.264583,0,0,0.264583,127.000008,-214.999756)">
<stop offset="0" style="stop-color:rgb(87.843138%,87.843138%,87.843138%);stop-opacity:1;"/>
<stop offset="1" style="stop-color:rgb(93.333334%,93.333334%,93.333334%);stop-opacity:1;"/>
</linearGradient>
<linearGradient id="linear5" gradientUnits="userSpaceOnUse" x1="105.833344" y1="0.666667" x2="105.833344" y2="-20.499998" gradientTransform="matrix(0.0468795,0,0,0.0468795,-0.00000062506,7.846464)">
<stop offset="0" style="stop-color:rgb(25.882354%,25.882354%,25.882354%);stop-opacity:1;"/>
<stop offset="1" style="stop-color:rgb(38.039216%,38.039216%,38.039216%);stop-opacity:1;"/>
</linearGradient>
<linearGradient id="linear6" gradientUnits="userSpaceOnUse" x1="105.833344" y1="0.666667" x2="105.833344" y2="-20.499998" gradientTransform="matrix(0.0468795,0,0,0.0468795,-0.00000062506,16.032793)">
<stop offset="0" style="stop-color:rgb(25.882354%,25.882354%,25.882354%);stop-opacity:1;"/>
<stop offset="1" style="stop-color:rgb(38.039216%,38.039216%,38.039216%);stop-opacity:1;"/>
</linearGradient>
</defs>
<g id="surface1">
<path style=" stroke:none;fill-rule:nonzero;fill:url(#linear0);" d="M 5.953125 21.027344 L 17.859375 21.027344 L 17.859375 22.019531 L 5.953125 22.019531 Z M 5.953125 21.027344 "/>
<path style=" stroke:none;fill-rule:nonzero;fill:url(#radial0);" d="M 17.859375 21.027344 L 19.84375 21.027344 L 19.84375 20.03125 L 17.859375 20.03125 Z M 17.859375 21.027344 "/>
<path style=" stroke:none;fill-rule:nonzero;fill:url(#radial1);" d="M 5.953125 21.027344 L 3.96875 21.027344 L 3.96875 22.019531 L 5.953125 22.019531 Z M 5.953125 21.027344 "/>
<path style=" stroke:none;fill-rule:nonzero;fill:url(#radial2);" d="M 5.953125 21.027344 L 3.96875 21.027344 L 3.96875 20.03125 L 5.953125 20.03125 Z M 5.953125 21.027344 "/>
<path style=" stroke:none;fill-rule:nonzero;fill:url(#radial3);" d="M 17.859375 21.027344 L 19.84375 21.027344 L 19.84375 22.019531 L 17.859375 22.019531 Z M 17.859375 21.027344 "/>
<path style=" stroke:none;fill-rule:nonzero;fill:url(#linear1);" d="M 4.960938 2.171875 L 18.851562 2.171875 C 19.402344 2.171875 19.84375 2.617188 19.84375 3.164062 L 19.84375 20.03125 C 19.84375 20.582031 19.402344 21.027344 18.851562 21.027344 L 4.960938 21.027344 C 4.414062 21.027344 3.96875 20.582031 3.96875 20.03125 L 3.96875 3.164062 C 3.96875 2.617188 4.414062 2.171875 4.960938 2.171875 Z M 4.960938 2.171875 "/>
<path style=" stroke:none;fill-rule:nonzero;fill:rgb(100%,100%,100%);fill-opacity:0.392157;" d="M 19.105469 9.617188 L 19.105469 9.621094 C 19.035156 9.621094 18.960938 9.621094 18.894531 9.636719 C 17.644531 9.777344 16.347656 12.242188 16.257812 14.683594 C 14.621094 15.722656 12.867188 16.675781 11.125 17.421875 C 10.261719 17.128906 8.269531 16.398438 6.984375 16.6875 C 6.175781 16.863281 5.585938 17.804688 5.71875 18.449219 C 5.710938 18.421875 5.703125 18.398438 5.699219 18.371094 C 5.703125 18.429688 5.722656 18.492188 5.75 18.554688 C 5.753906 18.570312 5.761719 18.582031 5.765625 18.59375 C 5.765625 18.589844 5.765625 18.585938 5.761719 18.582031 C 5.96875 18.988281 6.613281 19.433594 6.785156 19.433594 C 7.734375 19.613281 9.683594 19.027344 10.875 18.585938 C 12.449219 19.296875 14.289062 20.195312 15.867188 21.027344 L 18.625 21.027344 C 18.238281 19.347656 17.949219 17.183594 17.765625 15.382812 C 18.597656 14.785156 19.3125 14.136719 19.84375 13.492188 L 19.84375 11.914062 C 19.34375 12.488281 18.566406 13.128906 17.636719 13.777344 C 17.667969 11.078125 18.179688 9.222656 19.824219 9.902344 C 19.832031 9.90625 19.839844 9.910156 19.84375 9.914062 L 19.84375 9.808594 C 19.832031 9.804688 19.816406 9.796875 19.804688 9.792969 C 19.550781 9.617188 19.320312 9.628906 19.105469 9.617188 Z M 16.390625 16.070312 C 16.617188 17.71875 16.660156 18.160156 16.9375 20.355469 C 15.617188 19.589844 14.078125 18.695312 12.691406 18.054688 C 14.039062 17.5 15.171875 16.851562 16.390625 16.070312 Z M 6.875 17.523438 C 7.175781 17.523438 7.5 17.558594 7.800781 17.605469 C 7.867188 17.613281 7.953125 17.621094 8.027344 17.628906 C 8.5625 17.703125 8.921875 17.773438 9.171875 17.839844 L 9.175781 17.851562 C 9.339844 17.917969 9.515625 17.992188 9.695312 18.070312 C 8.726562 18.664062 6.136719 19.027344 5.75 18.496094 C 5.644531 17.738281 6.195312 17.527344 6.875 17.523438 Z M 18.601562 20.785156 C 18.625 20.859375 18.632812 20.941406 18.632812 21.027344 L 18.851562 21.027344 C 18.890625 21.027344 18.925781 21.023438 18.960938 21.019531 C 18.847656 20.941406 18.726562 20.859375 18.601562 20.785156 Z M 18.601562 20.785156 "/>
<path style="fill:none;stroke-width:8;stroke-linecap:round;stroke-linejoin:round;stroke:url(#linear2);stroke-dasharray:16.000002,16.000002;stroke-dashoffset:7.200001;stroke-miterlimit:4;" d="M 148.152519 -147.506445 L 148.152519 212.292529 L 391.545943 212.292529 C 397.462044 212.292529 402.128265 207.626308 402.128265 201.710206 L 402.128265 -136.924123 C 402.128265 -142.756899 397.462044 -147.506445 391.545943 -147.506445 Z M 148.152519 -147.506445 " transform="matrix(0.0468795,0,0,0.0468795,0,10.079087)"/>
<path style="fill-rule:nonzero;fill:url(#linear3);stroke-width:11.338583;stroke-linecap:round;stroke-linejoin:miter;stroke:rgb(12.941177%,12.941177%,12.941177%);stroke-opacity:1;stroke-miterlimit:4;" d="M 399.961827 175.101398 C 355.556616 175.101398 319.969461 210.688553 319.969461 255.093763 L 319.969461 1614.963974 C 319.969461 1659.369184 355.556616 1695.27127 399.961827 1695.27127 L 519.950375 1695.27127 L 519.950375 175.101398 Z M 399.961827 175.101398 " transform="matrix(0.0124035,0,0,0.0124035,0,0)"/>
<path style=" stroke:none;fill-rule:nonzero;fill:rgb(0%,0%,0%);fill-opacity:0.196078;" d="M 4.960938 20.96875 C 4.410156 20.96875 3.96875 20.527344 3.96875 19.976562 L 3.96875 19.851562 C 3.96875 20.402344 4.410156 20.84375 4.960938 20.84375 L 18.851562 20.84375 C 19.402344 20.84375 19.84375 20.402344 19.84375 19.851562 L 19.84375 19.976562 C 19.84375 20.527344 19.402344 20.96875 18.851562 20.96875 Z M 4.960938 20.96875 "/>
<path style="fill-rule:nonzero;fill:url(#linear4);stroke-width:3;stroke-linecap:round;stroke-linejoin:round;stroke:rgb(12.941177%,12.941177%,12.941177%);stroke-opacity:1;stroke-miterlimit:4;" d="M 328.052006 -168.671091 L 328.052006 85.304656 C 343.967153 42.975365 354.549476 42.975365 370.381297 85.304656 L 370.381297 -168.671091 Z M 328.052006 -168.671091 " transform="matrix(0.0468795,0,0,0.0468795,0,10.079087)"/>
<path style=" stroke:none;fill-rule:nonzero;fill:rgb(100%,100%,100%);fill-opacity:0.392157;" d="M 4.960938 2.226562 C 4.410156 2.226562 3.96875 2.671875 3.96875 3.21875 L 3.96875 3.34375 C 3.96875 2.792969 4.410156 2.351562 4.960938 2.351562 L 18.851562 2.351562 C 19.402344 2.351562 19.84375 2.792969 19.84375 3.34375 L 19.84375 3.21875 C 19.84375 2.671875 19.402344 2.226562 18.851562 2.226562 Z M 4.960938 2.226562 "/>
<path style=" stroke:none;fill-rule:nonzero;fill:rgb(12.941177%,12.941177%,12.941177%);fill-opacity:1;" d="M 4.960938 2.101562 C 4.375 2.101562 3.898438 2.578125 3.898438 3.164062 L 3.898438 20.03125 C 3.898438 20.621094 4.375 21.097656 4.960938 21.097656 L 18.851562 21.097656 C 19.441406 21.097656 19.914062 20.621094 19.914062 20.03125 L 19.914062 3.164062 C 19.914062 2.578125 19.441406 2.101562 18.851562 2.101562 Z M 4.960938 2.242188 L 18.851562 2.242188 C 19.367188 2.242188 19.773438 2.652344 19.773438 3.164062 L 19.773438 20.03125 C 19.773438 20.546875 19.367188 20.957031 18.851562 20.957031 L 4.960938 20.957031 C 4.449219 20.957031 4.039062 20.546875 4.039062 20.03125 L 4.039062 3.164062 C 4.039062 2.652344 4.449219 2.242188 4.960938 2.242188 Z M 4.960938 2.242188 "/>
<path style=" stroke:none;fill-rule:nonzero;fill:url(#linear5);" d="M 3.96875 6.886719 L 6.449219 6.886719 L 6.449219 7.878906 L 3.96875 7.878906 Z M 3.96875 6.886719 "/>
<path style=" stroke:none;fill-rule:nonzero;fill:rgb(0%,0%,0%);fill-opacity:0.235294;" d="M 3.96875 7.878906 L 3.96875 8.25 L 6.449219 8.25 L 6.449219 7.878906 Z M 3.96875 7.878906 "/>
<path style=" stroke:none;fill-rule:nonzero;fill:rgb(100%,100%,100%);fill-opacity:0.392157;" d="M 3.96875 6.886719 L 3.96875 7.132812 L 6.449219 7.132812 L 6.449219 6.886719 Z M 3.96875 6.886719 "/>
<path style="fill:none;stroke-width:3;stroke-linecap:round;stroke-linejoin:round;stroke:rgb(12.941177%,12.941177%,12.941177%);stroke-opacity:1;stroke-miterlimit:4;" d="M 84.658596 -20.472602 L 137.570209 -20.472602 L 137.570209 0.692043 L 84.658596 0.692043 Z M 84.658596 -20.472602 " transform="matrix(0.0468795,0,0,0.0468795,-0.00000062506,7.846464)"/>
<path style=" stroke:none;fill-rule:nonzero;fill:url(#linear6);" d="M 3.96875 15.070312 L 6.449219 15.070312 L 6.449219 16.0625 L 3.96875 16.0625 Z M 3.96875 15.070312 "/>
<path style=" stroke:none;fill-rule:nonzero;fill:rgb(0%,0%,0%);fill-opacity:0.235294;" d="M 3.96875 16.0625 L 3.96875 16.4375 L 6.449219 16.4375 L 6.449219 16.0625 Z M 3.96875 16.0625 "/>
<path style=" stroke:none;fill-rule:nonzero;fill:rgb(100%,100%,100%);fill-opacity:0.392157;" d="M 3.96875 15.070312 L 3.96875 15.320312 L 6.449219 15.320312 L 6.449219 15.070312 Z M 3.96875 15.070312 "/>
<path style="fill:none;stroke-width:3;stroke-linecap:round;stroke-linejoin:round;stroke:rgb(12.941177%,12.941177%,12.941177%);stroke-opacity:1;stroke-miterlimit:4;" d="M 84.658596 -20.530951 L 137.570209 -20.530951 L 137.570209 0.633695 L 84.658596 0.633695 Z M 84.658596 -20.530951 " transform="matrix(0.0468795,0,0,0.0468795,-0.00000062506,16.032793)"/>
</g>
</svg>
